!!!!SEGMENT: Mou3009-Jamais_naymeray_machon
!!!id: Mou3009
!!!AGN: Secular work
!!!voices: 3
!!!COM: Jean Mouton
!!!OTL: Jamais n'aymeray machon
**kern	**kern	**kern
*part3	*part2	*part1
*staff3	*staff2	*staff1
*I"Bassus	*I"Tenor	*I"Superius
*I'B	*I'T	*I'S
*clefF4	*clefGv2	*clefG2
*k[b-]	*k[b-]	*k[b-]
*F:	*F:	*F:
*M2/1	*M2/1	*M2/1
*met(C|)	*met(C|)	*met(C|)
=1	=1	=1
2F	2c	1r
2F	2c	.
2D	2d	2f
2D	2d	2f
=2	=2	=2
2C	2e	2g
2C	2e	2g
[1F	[1c	2a
.	.	2a
=3	=3	=3
2F]	2c]	2f
2F	2c	2cc
2A	2c	2cc
2A	2c	2cc
=4	=4	=4
1G	2.d	2b-y
.	.	4a
.	4e	4g
[1F	[1f	[1a
=5	=5	=5
1F]	1f]	1a]
2F	2c	2a
4F	4c	4a
4F	4c	4a
=6	=6	=6
2BB-y	2d	2b-y
2F	2c	2a
2G	2B-y	2g
2D	2A	2f
=7	=7	=7
2E	2G	2e
2F	2c	2a
2BB-y	4B-y	2g
.	4A	.
2D	4G	[2f
.	4F	.
=8	=8	=8
1C	1G	2f]
.	.	2e
1F	1F	1f
=9	=9	=9
2F	2c	2a
4F	4c	4a
4F	4c	4a
2BB-y	2B-y	2g
2D	2A	2f
=10	=10	=10
2BB-y	2G	2f
2C	2G	2e
1F	1F	1f
=11	=11	=11
2F	2c	2a
4F	4c	4a
4F	4c	4a
2BB-y	2B-y	2g
2D	2A	2f
=12	=12	=12
2BB-y	2G	2f
2C	2G	2e
1F	1F	1f
=13	=13	=13
2F	2c	1r
2F	2c	.
2D	2d	2f
2D	2d	2f
=14	=14	=14
2C	2e	2g
2C	2e	2g
[1F	[1c	2a
.	.	2a
=15	=15	=15
2F]	2c]	2f
2F	2c	2cc
2A	2c	2cc
2A	2c	2cc
=16	=16	=16
1G	2.d	2b-y
.	.	4a
.	4e	4g
[1F	[1f	[1a
=17	=17	=17
1F]	1f]	1a]
2F	2c	2a
4F	4c	4a
4F	4c	4a
=18	=18	=18
2BB-y	2d	2b-y
2F	2c	2a
2G	2B-y	2g
2D	2A	2f
=19	=19	=19
2E	2G	2e
2F	2c	2a
2BB-y	4B-y	2g
.	4A	.
2D	4G	[2f
.	4F	.
=20	=20	=20
1C	1G	2f]
.	.	2e
1F	1F	1f
=21	=21	=21
2F	2c	2a
4F	4c	4a
4F	4c	4a
2BB-y	2d	2b-y
2F	2c	2a
=22	=22	=22
2G	2B-y	2g
2D	2A	2f
2E	2G	2e
2F	2c	2a
=23	=23	=23
2BB-y	4B-y	2g
.	4A	.
2D	4G	1f
.	4F	.
1C	1G	.
.	.	2e
=24	=24	=24
0Fl	0Fl	0fl
==	==	==
*-	*-	*-
!!!system-decoration: s1,s2,s3
!!!RDF**kern: i = editorial accidental
!!!RDF**kern: l = terminal long
!!!ENC: Max Blistain
!!!END: 2026/03/22
!!!EED: Benjamin Ory
!!!EEV: 2026/03/26
!!!YEC: Copyright 2026 Benjamin Ory, All Rights Reserved
!!!ONB: Translated from MusicXML on 2026/03/26
